.local/share/icons/Gruvbox-Plus-Dark/actions/16/database-change-key.svg

<svg width="16" height="16" version="1.1" xmlns="http://www.w3.org/2000/svg">
  <defs>
    <style id="current-color-scheme" type="text/css">.ColorScheme-Text { color:#ebdbb2; } .ColorScheme-Highlight { color:#458588; }</style>
  </defs>
  <path class="ColorScheme-Text" d="m11.61 2c-0.1812 0-0.362 0.07094-0.502 0.2109l-1.398 1.398 2.67 2.68 1.408-1.398c0.28-0.28 0.28-0.7298 0-1.01l-1.67-1.67c-0.145-0.14-0.3266-0.2109-0.5078-0.2109zm-7.111 1c-2.49 0-4.5 2.02-4.5 4.5 0 1.221 0.4876 2.323 1.273 3.133l2.123-2.123c-0.244-0.2667-0.3965-0.6186-0.3965-1.01 0-0.82 0.67-1.5 1.5-1.5 0.3901 0 0.7412 0.1541 1.008 0.3984l2.119-2.119c-0.8224-0.7958-1.934-1.273-3.127-1.279zm4.25 1.57-6.75 6.75v2.68h2.67l6.75-6.75-2.67-2.68zm5.342 1.43-3.008 3h0.916v2h3v-2h1v-3h-1.908z" fill="currentColor"/>
</svg>

<svg xmlns="http://www.w3.org/2000/svg" width="16" height="16" version="1.1">
 <defs>
  <style id="current-color-scheme" type="text/css">
   .ColorScheme-Text { color:#565656; } .ColorScheme-Highlight { color:#4285f4; }
  </style>
 </defs>
 <path style="fill:currentColor" class="ColorScheme-Text" d="M 4.5,3 C 2.01,3 0,5.02 0,7.5 0,8.721 0.48724,9.8228 1.2734,10.633 L 3.3965,8.5098 C 3.1525,8.2431 3,7.891 3,7.5 3,6.68 3.67,6 4.5,6 4.8901,6 5.2414,6.1541 5.5078,6.3984 L 7.627,4.2793 C 6.8046,3.4835 5.6928,3.0063 4.5,3 Z M 14.092,6 11.084,9 H 12 V 11 H 15 V 9 H 16 V 6 Z"/>
 <path style="fill:currentColor" class="ColorScheme-Text" d="M 2,11.32 V 14 H 4.67 L 11.42,7.25 8.75,4.57 Z M 13.79,4.89 C 14.07,4.61 14.07,4.16 13.79,3.88 L 12.12,2.21 C 11.83,1.93 11.39,1.93 11.11,2.21 L 9.71,3.61 12.38,6.29 Z"/>
</svg>
